32x32/apps/opentyrian.svg

<svg xmlns="http://www.w3.org/2000/svg" width="32" height="32" version="1">
 <path style="opacity:0.2" d="m 15.9963,22.000039 c -0.990562,0.04939 -1.20202,0.79586 -1.494481,1.499961 h -0.750907 l -0.750906,-0.815897 v 2.909018 L 14.501819,28 h 1.494481 0.0074 1.494481 l 1.501813,-2.406879 V 22.684103 L 18.249087,23.5 h -0.75095 c -0.292462,-0.704101 -0.503919,-1.450575 -1.494481,-1.499961 -0.0025,-1.33e-4 -0.0046,1.28e-4 -0.0074,0 z"/>
 <path style="opacity:0.2" d="m 6,4 v 4.0996094 l 1.0195312,0.9238281 1,-0.046875 L 10,11.105469 V 13 H 8 v 6 H 5 v 7.025391 C 5,28.867496 8.4389734,30.929224 10.412109,31 8.7609172,29.352145 6.2965484,28.805624 6.8769531,24.328125 8.3130907,25.662779 9.5871598,27.319056 11.876953,27 10.392717,25.910931 8.5348095,25.262741 8.2460938,22.423828 l 0.8808593,-0.660156 h 0.6875 l 1.4082029,-1.746094 0.654297,-0.386719 3.431641,4.263672 L 16,24 v 0 h 0.0039 l 0.691406,-0.105469 3.431641,-4.263672 0.654297,0.386719 1.408203,1.746094 h 0.6875 l 0.880859,0.660156 C 23.469096,25.262741 21.611189,25.910931 20.126953,27 22.416746,27.319056 23.688862,25.662779 25.125,24.328125 25.705404,28.805624 23.242989,29.352145 21.591797,31 c 1.973136,-0.07078 5.412109,-2.132504 5.412109,-4.974609 V 19 h -3 v -6 h -2 v -1.894531 l 1.980469,-2.1289065 0.998047,0.046875 1.021484,-0.9238281 V 4 l -6,2.8417969 V 8 H 19.439453 L 19.037109,7.5527344 18.970703,6.1601562 17.375,5 h -1.369141 -0.002 H 16 15.996094 14.628906 L 13.033203,6.1601562 12.966797,7.5527344 12.564453,8 H 12 V 6.8417969 Z"/>
 <path style="fill:#d03d28" d="M 3,8.4473684 5.0994598,9.868421 5.7992797,12 H 3.6998199 L 3,10.578947 Z"/>
 <path style="fill:#d03d28" d="M 29.006716,8.4473684 26.907256,9.868421 26.207436,12 h 2.09946 l 0.69982,-1.421053 z"/>
 <path style="fill:#4f4f4f" d="m 6,3 v 4.0996094 l 1.0195312,0.9238281 1,-0.046875 L 10,10.105469 V 12 H 8 v 6 H 5 v 7.025391 C 5,27.867496 8.4389734,29.929224 10.412109,30 8.7609172,28.352145 6.2965484,27.805624 6.8769531,23.328125 8.3130907,24.662779 9.5871598,26.319056 11.876953,26 10.392717,24.910931 8.5348095,24.262741 8.2460938,21.423828 l 0.8808593,-0.660156 h 0.6875 l 1.4082029,-1.746094 0.654297,-0.386719 3.431641,4.263672 L 16,23 v 0 h 0.0039 l 0.691406,-0.105469 3.431641,-4.263672 0.654297,0.386719 1.408203,1.746094 h 0.6875 l 0.880859,0.660156 C 23.469096,24.262741 21.611189,24.910931 20.126953,26 22.416746,26.319056 23.688862,24.662779 25.125,23.328125 25.705404,27.805624 23.242989,28.352145 21.591797,30 c 1.973136,-0.07078 5.412109,-2.132504 5.412109,-4.974609 V 18 h -3 v -6 h -2 v -1.894531 l 1.980469,-2.1289065 0.998047,0.046875 1.021484,-0.9238281 V 3 l -6,2.8417969 V 7 H 19.439453 L 19.037109,6.5527344 18.970703,5.1601562 17.375,4 h -1.369141 -0.002 H 16 15.996094 14.628906 L 13.033203,5.1601562 12.966797,6.5527344 12.564453,7 H 12 V 5.8417969 Z"/>
 <rect style="fill:#d03d28" width="2" height="2" x="-27.01" y="18" transform="scale(-1,1)"/>
 <rect style="fill:#d03d28" width="2" height="2" x="5" y="18"/>
 <path style="fill:#f4f4f7;opacity:0.1" d="M 6 3 L 6 4 L 12 6.8417969 L 12 5.8417969 L 6 3 z M 26.003906 3 L 20.003906 5.8417969 L 20.003906 6.8417969 L 26.003906 4 L 26.003906 3 z M 14.628906 4 L 13.033203 5.1601562 L 12.966797 6.5527344 L 12.564453 7 L 12 7 L 12 8 L 12.564453 8 L 12.966797 7.5527344 L 13.033203 6.1601562 L 14.628906 5 L 15.996094 5 L 16 5 L 16.003906 5 L 16.005859 5 L 17.375 5 L 18.970703 6.1601562 L 19.037109 7.5527344 L 19.439453 8 L 20.003906 8 L 20.003906 7 L 19.439453 7 L 19.037109 6.5527344 L 18.970703 5.1601562 L 17.375 4 L 16.005859 4 L 16.003906 4 L 16 4 L 15.996094 4 L 14.628906 4 z M 8 12 L 8 13 L 10 13 L 10 12 L 8 12 z M 22.003906 12 L 22.003906 13 L 24.003906 13 L 24.003906 12 L 22.003906 12 z M 5 18 L 5 19 L 8 19 L 8 18 L 5 18 z M 24.003906 18 L 24.003906 19 L 27.003906 19 L 27.003906 18 L 24.003906 18 z M 8.4082031 22.302734 L 8.2460938 22.423828 C 8.4290009 24.222337 9.242912 25.140468 10.191406 25.849609 C 10.694089 26.014841 11.243879 26.088211 11.876953 26 C 10.561398 25.034702 8.9580021 24.407781 8.4082031 22.302734 z M 23.595703 22.302734 C 23.045908 24.407781 21.442508 25.034702 20.126953 26 C 20.760027 26.088211 21.310033 26.014841 21.8125 25.849609 C 22.760994 25.140468 23.574909 24.222337 23.757812 22.423828 L 23.595703 22.302734 z M 6.8105469 25.033203 C 6.6526596 27.548609 7.5845486 28.65931 8.6835938 29.566406 C 9.3011839 29.827135 9.9049213 29.981807 10.412109 30 C 9.0001171 28.590861 6.9993555 27.978448 6.8105469 25.033203 z M 25.191406 25.033203 C 25.003011 27.978448 23.003789 28.590861 21.591797 30 C 22.097916 29.981845 22.700176 29.828071 23.316406 29.568359 C 24.416049 28.660871 25.349544 27.550585 25.191406 25.033203 z"/>
 <path style="opacity:0.2" d="M 6,6 C 5.0457094,6.0264945 4.2433273,5.9644307 3.34375,6.5644531 2.5882918,7.0199199 2.0679108,7.6626622 2.0078125,8.3671875 1.905908,9.5618009 3.1132012,11.209527 5,12.144531 v 1.38086 L 7.9121094,17 9,16.980469 V 12.544922 C 7.0889593,11.366745 1.0179781,9.6968902 3.7285156,7.3144531 4.3423018,6.6041736 5.1098539,6.6546414 6,6.6640625 Z m 9,0 V 6.75 L 12.5,7.5 V 9 c 0,0 2.187217,-0.6954142 3.496094,-0.703125 0.0021,9e-6 0.0056,-1.27e-5 0.0078,0 C 17.312769,8.304585 19.5,9 19.5,9 V 7.5 L 17,6.75 V 6 h -0.996094 -0.0078 z m 11.005859,0 v 0.6640625 c 0.890146,-0.00942 1.657698,-0.059889 2.271485,0.6503906 2.710537,2.3824371 -3.360444,4.0522919 -5.271485,5.2304689 v 4.435547 L 24.095703,17 27,13.525391 v -1.38086 C 28.886799,11.209527 30.101904,9.5618009 30,8.3671875 29.939901,7.6626622 29.417567,7.0199199 28.662109,6.5644531 27.762532,5.9644307 26.96015,6.026495 26.005859,6 Z M 15.996094,10 C 14.613273,10.000379 12,10.666016 12,10.666016 V 14 c 0,0 2.54088,-1.25855 3.996094,-1.273438 0.002,1.7e-5 0.0058,-2.1e-5 0.0078,0 C 17.459095,12.741452 20,14 20,14 v -3.333984 c 0,0 -2.613274,-0.665637 -3.996094,-0.666016 -0.002,-6e-7 -0.0058,-1.9e-6 -0.0078,0 z m -3.095703,5 -4.2011722,4 H 8 l 1.5,1.599609 V 22 h 1.494141 L 11.005859,20.771484 11.5,19.900391 V 18.5 L 12.900391,17 h 0.699218 l 0.701172,-0.5 H 15 L 14.958984,15 Z m 4.146484,0 -0.04102,1.5 h 0.701172 L 18.40625,17 h 0.701172 l 1.398437,1.5 v 1.400391 L 21,20.771484 21.013672,22 h 1.492187 V 20.599609 L 24.005859,19 h -0.699218 l -4.199219,-4 z"/>
 <path style="fill:#885f35" d="M 6 5 C 5.0457094 5.0264945 4.2433273 4.9644307 3.34375 5.5644531 C 2.5882918 6.0199199 2.0679108 6.6626622 2.0078125 7.3671875 C 1.905908 8.5618009 3.1132012 10.209527 5 11.144531 L 5 12.525391 L 7.9121094 16 L 9 15.980469 L 9 11.544922 C 7.0889593 10.366745 1.0179781 8.6968902 3.7285156 6.3144531 C 4.3423018 5.6041736 5.1098539 5.6546414 6 5.6640625 L 6 5 z M 15 5 L 15 5.75 L 12.5 6.5 L 12.5 8 C 12.5 8 14.687217 7.3045858 15.996094 7.296875 C 15.998194 7.296884 16.001706 7.2968623 16.003906 7.296875 C 17.312769 7.304585 19.5 8 19.5 8 L 19.5 6.5 L 17 5.75 L 17 5 L 16.003906 5 L 15.996094 5 L 15 5 z M 26.005859 5 L 26.005859 5.6640625 C 26.896005 5.6546414 27.663557 5.6041736 28.277344 6.3144531 C 30.987881 8.6968902 24.9169 10.366745 23.005859 11.544922 L 23.005859 15.980469 L 24.095703 16 L 27 12.525391 L 27 11.144531 C 28.886799 10.209527 30.101904 8.5618009 30 7.3671875 C 29.939901 6.6626622 29.417567 6.0199199 28.662109 5.5644531 C 27.762532 4.9644307 26.96015 5.026495 26.005859 5 z M 15.996094 9 C 14.613273 9.0003787 12 9.6660156 12 9.6660156 L 12 13 C 12 13 14.54088 11.74145 15.996094 11.726562 C 15.998094 11.726579 16.001906 11.726541 16.003906 11.726562 C 17.459095 11.741452 20 13 20 13 L 20 9.6660156 C 20 9.6660156 17.386726 9.0003787 16.003906 9 C 16.001906 8.9999994 15.998094 8.9999981 15.996094 9 z M 12.900391 14 L 8.6992188 18 L 8 18 L 9.5 19.599609 L 9.5 21 L 10.994141 21 L 11.005859 19.771484 L 11.5 18.900391 L 11.5 17.5 L 12.900391 16 L 13.599609 16 L 14.300781 15.5 L 15 15.5 L 14.958984 14 L 12.900391 14 z M 17.046875 14 L 17.005859 15.5 L 17.707031 15.5 L 18.40625 16 L 19.107422 16 L 20.505859 17.5 L 20.505859 18.900391 L 21 19.771484 L 21.013672 21 L 22.505859 21 L 22.505859 19.599609 L 24.005859 18 L 23.306641 18 L 19.107422 14 L 17.046875 14 z"/>
 <path style="fill:#f4f4f7;opacity:0.2" d="M 6 5 C 5.0457094 5.0264945 4.2433273 4.9644307 3.34375 5.5644531 C 2.5882918 6.0199199 2.0679108 6.6626622 2.0078125 7.3671875 C 1.9897072 7.5794333 2.0268744 7.8086552 2.0878906 8.0429688 C 2.2558282 7.4682002 2.7070689 6.948309 3.34375 6.5644531 C 3.4422915 6.4987255 3.5362761 6.4668406 3.6328125 6.4160156 C 3.66863 6.3815913 3.6890067 6.3491796 3.7285156 6.3144531 C 4.3423018 5.6041736 5.1098539 5.6546414 6 5.6640625 L 6 5 z M 15 5 L 15 5.75 L 12.5 6.5 L 12.5 7.5 L 15 6.75 L 15 6 L 15.996094 6 L 16.003906 6 L 17 6 L 17 6.75 L 19.5 7.5 L 19.5 6.5 L 17 5.75 L 17 5 L 16.003906 5 L 15.996094 5 L 15 5 z M 26.005859 5 L 26.005859 5.6640625 C 26.896005 5.6546414 27.663557 5.6041736 28.277344 6.3144531 C 28.316853 6.3491796 28.337229 6.3815913 28.373047 6.4160156 C 28.469583 6.4668406 28.563568 6.4987255 28.662109 6.5644531 C 29.299569 6.9487786 29.752084 7.4693085 29.919922 8.0449219 C 29.981697 7.8099664 30.018152 7.5799786 30 7.3671875 C 29.939901 6.6626622 29.417567 6.0199199 28.662109 5.5644531 C 27.762532 4.9644307 26.96015 5.026495 26.005859 5 z M 3.1757812 8.0273438 C 2.2454078 10.034466 7.2859911 11.488217 9 12.544922 L 9 11.544922 C 7.5849327 10.672518 3.8984208 9.5286031 3.1757812 8.0273438 z M 28.830078 8.0273438 C 28.107438 9.5286031 24.420927 10.672518 23.005859 11.544922 L 23.005859 12.544922 C 24.719869 11.488217 29.760451 10.034466 28.830078 8.0273438 z M 15.996094 9 C 14.613273 9.0003787 12 9.6660156 12 9.6660156 L 12 10.666016 C 12 10.666016 14.613273 10.000379 15.996094 10 C 15.998094 9.9999981 16.001906 9.9999994 16.003906 10 C 17.386726 10.000379 20 10.666016 20 10.666016 L 20 9.6660156 C 20 9.6660156 17.386726 9.0003787 16.003906 9 C 16.001906 8.9999994 15.998094 8.9999981 15.996094 9 z M 12.900391 14 L 8.6992188 18 L 8 18 L 8.8261719 18.880859 L 12.900391 15 L 14.958984 15 L 14.972656 15.5 L 15 15.5 L 14.958984 14 L 12.900391 14 z M 17.046875 14 L 17.005859 15.5 L 17.033203 15.5 L 17.046875 15 L 19.107422 15 L 23.179688 18.880859 L 24.005859 18 L 23.306641 18 L 19.107422 14 L 17.046875 14 z"/>
 <path style="fill:#d03d28" d="M 14.501468,17 13.033694,18.378906 13,20.225263 14.923341,22.97917 15.995607,23 h 0.0088 L 17.076671,22.97917 19,20.225263 18.966306,18.378906 17.498539,17 H 17 v 4.666669 H 15 V 17 Z"/>
 <path style="fill:#7a7c7a" d="m 15.9963,21.000039 c -0.990562,0.04939 -1.20202,0.79586 -1.494481,1.499961 h -0.750907 l -0.750906,-0.815897 v 2.909018 L 14.501819,27 h 1.494481 0.0074 1.494481 l 1.501813,-2.406879 V 21.684103 L 18.249087,22.5 h -0.75095 c -0.292462,-0.704101 -0.503919,-1.450575 -1.494481,-1.499961 -0.0025,-1.33e-4 -0.0046,1.28e-4 -0.0074,0 z"/>
 <circle style="opacity:0.2" cx="16" cy="15" r="2"/>
 <circle style="fill:#ffa00e" cx="16" cy="14" r="2"/>
 <path style="fill:#f4f4f7;opacity:0.2" d="M 16 12 A 2 2 0 0 0 14 14 A 2 2 0 0 0 14.064453 14.503906 A 2 2 0 0 1 16 13 A 2 2 0 0 1 17.935547 14.496094 A 2 2 0 0 0 18 14 A 2 2 0 0 0 16 12 z"/>
</svg>

<svg xmlns="http://www.w3.org/2000/svg" width="32" height="32" version="1"><path style="opacity:.2" d="M15.996 22c-.99.05-1.202.796-1.494 1.5h-.751L13 22.684v2.91L14.502 28h2.996L19 25.593v-2.909l-.75.816h-.752c-.292-.704-.504-1.45-1.494-1.5h-.008z"/><path style="opacity:.2" d="M6 4v4.1l1.02.923 1-.046L10 11.105V13H8v6H5v7.025C5 28.867 8.439 30.93 10.412 31c-1.651-1.648-4.115-2.194-3.535-6.672 1.436 1.335 2.71 2.991 5 2.672-1.484-1.09-3.342-1.737-3.63-4.576l.88-.66h.687l1.409-1.746.654-.387 3.432 4.264L16 24h.004l.691-.105 3.432-4.264.654.387 1.408 1.746h.688l.88.66c-.288 2.839-2.146 3.487-3.63 4.576 2.29.32 3.562-1.337 4.998-2.672.58 4.478-1.882 5.024-3.533 6.672 1.973-.07 5.412-2.133 5.412-4.975V19h-3v-6h-2v-1.895l1.98-2.128.998.046 1.022-.923V4l-6 2.842V8h-.565l-.402-.447-.066-1.393L17.375 5h-2.746l-1.596 1.16-.066 1.393-.403.447H12V6.842z"/><path style="fill:#d03d28" d="m3 8.447 2.1 1.421L5.8 12H3.7L3 10.579zM29.007 8.447l-2.1 1.421-.7 2.132h2.1l.7-1.421z"/><path style="fill:#4f4f4f" d="M6 3v4.1l1.02.923 1-.046L10 10.105V12H8v6H5v7.025C5 27.867 8.439 29.93 10.412 30c-1.651-1.648-4.115-2.194-3.535-6.672 1.436 1.335 2.71 2.991 5 2.672-1.484-1.09-3.342-1.737-3.63-4.576l.88-.66h.687l1.409-1.746.654-.387 3.432 4.264L16 23h.004l.691-.105 3.432-4.264.654.387 1.408 1.746h.688l.88.66c-.288 2.839-2.146 3.487-3.63 4.576 2.29.32 3.562-1.337 4.998-2.672.58 4.478-1.882 5.024-3.533 6.672 1.973-.07 5.412-2.133 5.412-4.975V18h-3v-6h-2v-1.895l1.98-2.128.998.046 1.022-.923V3l-6 2.842V7h-.565l-.402-.447-.066-1.393L17.375 4h-2.746l-1.596 1.16-.066 1.393-.403.447H12V5.842z"/><path style="fill:#d03d28" transform="scale(-1 1)" d="M-27.01 18h2v2h-2z"/><path style="fill:#d03d28" d="M5 18h2v2H5z"/><path style="fill:#f4f4f7;opacity:.1" d="M6 3v1l6 2.842v-1L6 3zm20.004 0-6 2.842v1l6-2.842V3zM14.629 4l-1.596 1.16-.066 1.393-.403.447H12v1h.564l.403-.447.066-1.393L14.63 5h2.746l1.596 1.16.066 1.393.402.447h.565V7h-.565l-.402-.447-.066-1.393L17.375 4h-2.746zM8 12v1h2v-1H8zm14.004 0v1h2v-1h-2zM5 18v1h3v-1H5zm19.004 0v1h3v-1h-3zM8.408 22.303l-.162.12c.183 1.8.997 2.717 1.945 3.427a3.657 3.657 0 0 0 1.686.15c-1.316-.965-2.919-1.592-3.469-3.697zm15.188 0c-.55 2.105-2.153 2.732-3.469 3.697a3.657 3.657 0 0 0 1.686-.15c.948-.71 1.762-1.628 1.945-3.426l-.162-.121zM6.81 25.033c-.158 2.516.774 3.626 1.873 4.533.617.261 1.22.416 1.728.434C9 28.59 7 27.978 6.811 25.033zm18.38 0c-.188 2.945-2.187 3.558-3.6 4.967.507-.018 1.11-.172 1.725-.432 1.1-.907 2.034-2.017 1.875-4.535z"/><path style="opacity:.2" d="M6 6c-.954.026-1.757-.036-2.656.564-.756.456-1.276 1.099-1.336 1.803C1.906 9.562 3.113 11.21 5 12.145v1.38L7.912 17 9 16.98v-4.435c-1.911-1.178-7.982-2.848-5.271-5.23.613-.71 1.38-.66 2.271-.65zm9 0v.75l-2.5.75V9s2.187-.695 3.496-.703h.008C17.313 8.305 19.5 9 19.5 9V7.5L17 6.75V6h-1.004zm11.006 0v.664c.89-.01 1.658-.06 2.271.65 2.71 2.383-3.36 4.053-5.271 5.23v4.436l1.09.02L27 13.525v-1.38c1.887-.935 3.102-2.583 3-3.778-.06-.704-.582-1.347-1.338-1.803-.9-.6-1.702-.538-2.656-.564zm-10.01 4c-1.383 0-3.996.666-3.996.666V14s2.54-1.259 3.996-1.273h.008C17.459 12.74 20 14 20 14v-3.334S17.387 10 16.004 10h-.008zM12.9 15l-4.2 4H8l1.5 1.6V22h1.494l.012-1.229.494-.87V18.5l1.4-1.5h.7l.7-.5h.7l-.041-1.5zm4.147 0-.041 1.5h.701l.7.5h.7l1.399 1.5v1.4l.494.871.014 1.229h1.492v-1.4l1.5-1.6h-.7l-4.199-4z"/><path style="fill:#885f35" d="M6 5c-.954.026-1.757-.036-2.656.564-.756.456-1.276 1.099-1.336 1.803C1.906 8.562 3.113 10.21 5 11.145v1.38L7.912 16 9 15.98v-4.435c-1.911-1.178-7.982-2.848-5.271-5.23.613-.71 1.38-.66 2.271-.65V5zm9 0v.75l-2.5.75V8s2.187-.695 3.496-.703h.008C17.313 7.305 19.5 8 19.5 8V6.5L17 5.75V5h-2zm11.006 0v.664c.89-.01 1.658-.06 2.271.65 2.71 2.383-3.36 4.053-5.271 5.23v4.436l1.09.02L27 12.525v-1.38c1.887-.935 3.102-2.583 3-3.778-.06-.704-.582-1.347-1.338-1.803-.9-.6-1.702-.538-2.656-.564zm-10.01 4C14.613 9 12 9.666 12 9.666V13s2.54-1.259 3.996-1.273h.008C17.459 11.74 20 13 20 13V9.666S17.387 9 16.004 9h-.008zM12.9 14l-4.2 4H8l1.5 1.6V21h1.494l.012-1.229.494-.87V17.5l1.4-1.5h.7l.7-.5h.7l-.041-1.5H12.9zm4.147 0-.041 1.5h.701l.7.5h.7l1.399 1.5v1.4l.494.871.014 1.229h1.492v-1.4l1.5-1.6h-.7l-4.199-4h-2.06z"/><path style="fill:#f4f4f7;opacity:.2" d="M6 5c-.954.026-1.757-.036-2.656.564-.756.456-1.276 1.099-1.336 1.803-.018.212.019.442.08.676.168-.575.62-1.095 1.256-1.479.098-.065.192-.097.289-.148.036-.034.056-.067.096-.102.613-.71 1.38-.66 2.271-.65V5zm9 0v.75l-2.5.75v1l2.5-.75V6h2v.75l2.5.75v-1L17 5.75V5h-2zm11.006 0v.664c.89-.01 1.658-.06 2.271.65.04.035.06.068.096.102.097.05.19.083.29.148.637.385 1.09.905 1.257 1.48.062-.234.098-.464.08-.677-.06-.704-.582-1.347-1.338-1.803-.9-.6-1.702-.538-2.656-.564zM3.176 8.027c-.93 2.007 4.11 3.461 5.824 4.518v-1c-1.415-.872-5.102-2.016-5.824-3.518zm25.654 0c-.723 1.502-4.41 2.646-5.824 3.518v1c1.714-1.057 6.754-2.51 5.824-4.518zM15.996 9C14.613 9 12 9.666 12 9.666v1S14.613 10 15.996 10h.008c1.383 0 3.996.666 3.996.666v-1S17.387 9 16.004 9h-.008zM12.9 14l-4.2 4H8l.826.88L12.9 15h2.059l.014.5H15l-.041-1.5H12.9zm4.147 0-.041 1.5h.027l.014-.5h2.06l4.073 3.88.826-.88h-.7l-4.199-4h-2.06z"/><path style="fill:#d03d28" d="m14.501 17-1.467 1.379L13 20.225l1.923 2.754 1.073.021h.008l1.073-.02L19 20.224l-.034-1.846L17.5 17H17v4.667h-2V17z"/><path style="fill:#7a7c7a" d="M15.996 21c-.99.05-1.202.796-1.494 1.5h-.751L13 21.684v2.91L14.502 27h2.996L19 24.593v-2.909l-.75.816h-.752c-.292-.704-.504-1.45-1.494-1.5h-.008z"/><circle style="opacity:.2" cx="16" cy="15" r="2"/><circle style="fill:#ffa00e" cx="16" cy="14" r="2"/><path style="fill:#f4f4f7;opacity:.2" d="M16 12a2 2 0 0 0-2 2 2 2 0 0 0 .064.504A2 2 0 0 1 16 13a2 2 0 0 1 1.936 1.496A2 2 0 0 0 18 14a2 2 0 0 0-2-2z"/></svg>
